Newaita-dark/actions/16/format-text-direction-vertical.svg

<?xml version="1.0" encoding="UTF-8"?>
<svg xmlns="http://www.w3.org/2000/svg" xmlns:xlink="http://www.w3.org/1999/xlink" width="16pt" height="16pt" viewBox="0 0 16 16" version="1.1">
<g id="surface1">
<path style=" stroke:none;fill-rule:nonzero;fill:rgb(47.058824%,56.470591%,61.176473%);fill-opacity:1;" d="M 4.628906 2.109375 C 3.164062 2.109375 1.984375 2.996094 1.984375 4.09375 L 1.984375 10.046875 L 3.308594 10.046875 L 3.308594 7.402344 L 5.953125 7.402344 L 5.953125 10.046875 L 7.277344 10.046875 L 7.277344 4.09375 C 7.277344 2.996094 6.097656 2.109375 4.628906 2.109375 Z M 4.628906 3.433594 C 5.363281 3.433594 5.953125 3.726562 5.953125 4.09375 L 5.953125 6.078125 L 3.308594 6.078125 L 3.308594 4.09375 C 3.308594 3.726562 3.898438 3.433594 4.628906 3.433594 Z M 4.628906 3.433594 "/>
<path style=" stroke:none;fill-rule:nonzero;fill:rgb(47.058824%,56.470591%,61.176473%);fill-opacity:1;" d="M 2.976562 11.371094 C 3.34375 11.371094 3.636719 11.667969 3.636719 12.03125 L 3.636719 13.355469 C 3.636719 13.722656 3.34375 14.015625 2.976562 14.015625 C 2.613281 14.015625 2.316406 13.722656 2.316406 13.355469 L 2.316406 12.03125 C 2.316406 11.667969 2.613281 11.371094 2.976562 11.371094 Z M 2.976562 11.371094 "/>
<path style=" stroke:none;fill-rule:nonzero;fill:rgb(47.058824%,56.470591%,61.176473%);fill-opacity:1;" d="M 9.921875 2.109375 C 10.289062 2.109375 10.585938 2.40625 10.585938 2.769531 L 10.585938 9.386719 C 10.585938 9.75 10.289062 10.046875 9.921875 10.046875 C 9.558594 10.046875 9.261719 9.75 9.261719 9.386719 L 9.261719 2.769531 C 9.261719 2.40625 9.558594 2.109375 9.921875 2.109375 Z M 9.921875 2.109375 "/>
<path style=" stroke:none;fill-rule:evenodd;fill:rgb(14.901961%,65.098041%,60.392159%);fill-opacity:1;" d="M 8.929688 11.039062 C 8.75 11.039062 8.601562 11.1875 8.601562 11.371094 C 8.601562 11.417969 8.609375 11.460938 8.625 11.5 L 9.617188 13.816406 C 9.671875 13.9375 9.789062 14.015625 9.921875 14.015625 C 10.054688 14.015625 10.175781 13.9375 10.226562 13.816406 L 11.21875 11.5 C 11.238281 11.460938 11.246094 11.417969 11.246094 11.371094 C 11.246094 11.1875 11.097656 11.039062 10.914062 11.039062 Z M 8.929688 11.039062 "/>
<path style=" stroke:none;fill-rule:nonzero;fill:rgb(47.058824%,56.470591%,61.176473%);fill-opacity:1;" d="M 13.230469 2.109375 C 13.597656 2.109375 13.890625 2.40625 13.890625 2.769531 L 13.890625 9.386719 C 13.890625 9.75 13.597656 10.046875 13.230469 10.046875 C 12.863281 10.046875 12.570312 9.75 12.570312 9.386719 L 12.570312 2.769531 C 12.570312 2.40625 12.863281 2.109375 13.230469 2.109375 Z M 13.230469 2.109375 "/>
<path style=" stroke:none;fill-rule:nonzero;fill:rgb(47.058824%,56.470591%,61.176473%);fill-opacity:1;" d="M 6.285156 11.371094 C 6.648438 11.371094 6.945312 11.667969 6.945312 12.03125 L 6.945312 13.355469 C 6.945312 13.722656 6.648438 14.015625 6.285156 14.015625 C 5.917969 14.015625 5.621094 13.722656 5.621094 13.355469 L 5.621094 12.03125 C 5.621094 11.667969 5.917969 11.371094 6.285156 11.371094 Z M 6.285156 11.371094 "/>
<path style=" stroke:none;fill-rule:evenodd;fill:rgb(14.901961%,65.098041%,60.392159%);fill-opacity:1;" d="M 12.238281 11.039062 C 12.054688 11.039062 11.90625 11.1875 11.90625 11.371094 C 11.90625 11.417969 11.917969 11.460938 11.933594 11.5 L 12.925781 13.816406 C 12.980469 13.9375 13.097656 14.015625 13.230469 14.015625 C 13.363281 14.015625 13.480469 13.9375 13.535156 13.816406 L 14.527344 11.5 C 14.542969 11.460938 14.554688 11.417969 14.554688 11.371094 C 14.554688 11.1875 14.40625 11.039062 14.222656 11.039062 Z M 12.238281 11.039062 "/>
</g>
</svg>

<svg xmlns="http://www.w3.org/2000/svg" width="16pt" height="16pt" viewBox="0 0 16 16"><path d="M4.629 2.11c-1.465 0-2.645.886-2.645 1.984v5.953H3.31V7.402h2.644v2.645h1.324V4.094c0-1.098-1.18-1.985-2.648-1.985zm0 1.324c.734 0 1.324.293 1.324.66v1.984H3.31V4.094c0-.367.59-.66 1.32-.66zm0 0M2.977 11.371a.66.66 0 0 1 .66.66v1.324a.66.66 0 1 1-1.32 0v-1.324c0-.363.296-.66.66-.66zm0 0M9.922 2.11c.367 0 .664.296.664.66v6.617a.663.663 0 0 1-1.324 0V2.77c0-.364.297-.66.66-.66zm0 0" fill="#78909c"/><path d="M8.93 11.04a.33.33 0 0 0-.328.331c0 .047.007.09.023.129l.992 2.316a.334.334 0 0 0 .61 0l.992-2.316a.332.332 0 0 0-.305-.46zm0 0" fill-rule="evenodd" fill="#26a69a"/><path d="M13.23 2.11a.66.66 0 0 1 .66.66v6.617a.66.66 0 1 1-1.32 0V2.77a.66.66 0 0 1 .66-.66zm0 0M6.285 11.371c.363 0 .66.297.66.66v1.324a.66.66 0 0 1-.66.66.66.66 0 0 1-.664-.66v-1.324c0-.363.297-.66.664-.66zm0 0" fill="#78909c"/><path d="M12.238 11.04a.332.332 0 0 0-.304.46l.992 2.316a.334.334 0 0 0 .61 0l.991-2.316a.332.332 0 0 0-.305-.46zm0 0" fill-rule="evenodd" fill="#26a69a"/></svg>
